X:540
T: GESTERN ABEND IN DER STILLEN RUH
N: E0522
O: Europa, Mitteleuropa, Deutschland, Schwaben, Kuestrin
R: Liebes - Lied
M: 2/4
L: 1/16
K: G
 | B2GAB2G2 | B2d2c2B2 | B4A4 |
A2FGA2F2 | A2c2B2A2 | A4G4 |
d2Bcd2Bcd4 | A2B2c2BAB4
G2g2f2e2 | d2Bcd4 |
c2A2B2G2 | A2F2G4

@@@ Tune index: 4190
